X: 7194
T: Cillian's Midnight Dip
R: reel
M: 4/4
K: Dminor
|:AD ~D2 ABcA|GE ~E2 CEGE|Dz dc (3def ed|cAGE EDDG|
~A3 G AccA|GE ~E2 CEGE|D2 dc dfed|1 cAGE CDDC:|2 cAGE ED ~D2||
|:dc (3ABc dz gf|eA ~A2 ffef|defd ~g3 f|dcAG Ad ~d2|
dc (3ABc dz gf|eA ~A2 ffef|~g3 f deed|1 cAGE ED ~D2:|2 cAGE EDEG||

